img/svg/footer-instagram.svg

<svg width="11" height="11" viewBox="0 0 11 11" fill="none" xmlns="http://www.w3.org/2000/svg">
<path d="M10.9669 3.23239C10.9402 2.64694 10.8472 2.24713 10.7112 1.89734C10.5732 1.53034 10.3566 1.19792 10.0768 0.923157C9.80216 0.643356 9.46966 0.42675 9.10266 0.288612C8.75278 0.15274 8.35306 0.0598373 7.76761 0.0332336C7.18107 0.00637817 6.99367 0 5.5 0C4.00633 0 3.81893 0.00637817 3.23239 0.0330658C2.64694 0.0598373 2.24722 0.152824 1.89734 0.28878C1.53034 0.426834 1.19792 0.643356 0.923157 0.923157C0.643356 1.19784 0.42675 1.53026 0.288612 1.89725C0.15274 2.24713 0.0598373 2.64694 0.0332336 3.23231C0.00637817 3.81893 0 4.00625 0 5.49992C0 6.99367 0.00637817 7.18107 0.0332336 7.76761C0.0599213 8.35297 0.152908 8.75278 0.288864 9.10266C0.426918 9.46957 0.64344 9.80208 0.923241 10.0768C1.19792 10.3566 1.53043 10.5731 1.89742 10.7111C2.24722 10.8472 2.64703 10.9401 3.23248 10.9669C3.8191 10.9936 4.00642 10.9999 5.50008 10.9999C6.99375 10.9999 7.18115 10.9936 7.76769 10.9669C8.35314 10.9401 8.75287 10.8472 9.10275 10.7111C9.84152 10.4255 10.4255 9.84144 10.7112 9.10266C10.8473 8.75278 10.9402 8.35297 10.9669 7.76761C10.9936 7.18098 11 6.99367 11 5.5C11 4.00625 10.9936 3.81893 10.9669 3.23239V3.23239ZM9.97689 7.72254C9.95247 8.25881 9.86284 8.55003 9.78756 8.7438C9.60251 9.22351 9.22343 9.60259 8.74372 9.78764C8.54994 9.86292 8.25873 9.95255 7.72246 9.97697C7.14263 10.0035 6.96866 10.009 5.5 10.009C4.03126 10.009 3.85737 10.0035 3.27746 9.97697C2.74127 9.95255 2.45006 9.86292 2.2562 9.78764C2.01735 9.69944 1.80125 9.55887 1.62383 9.37617C1.44113 9.19875 1.30056 8.98273 1.21236 8.7438C1.13708 8.55003 1.04745 8.25881 1.02303 7.72254C0.99659 7.14263 0.990967 6.96866 0.990967 5.50008C0.990967 4.03143 0.99659 3.85754 1.02303 3.27754C1.04753 2.74127 1.13708 2.45006 1.21236 2.25628C1.30056 2.01735 1.44122 1.80125 1.62383 1.62383C1.80125 1.44113 2.01735 1.30056 2.25628 1.21244C2.45006 1.13708 2.74127 1.04753 3.27754 1.02303C3.85745 0.99659 4.03143 0.990967 5.5 0.990967H5.49992C6.96849 0.990967 7.14246 0.99659 7.72246 1.02311C8.25873 1.04753 8.54986 1.13716 8.74372 1.21244C8.98257 1.30064 9.19867 1.44122 9.37608 1.62383C9.55878 1.80125 9.69936 2.01735 9.78748 2.25628C9.86284 2.45006 9.95247 2.74127 9.97689 3.27754C10.0033 3.85745 10.0089 4.03143 10.0089 5.5C10.0089 6.96866 10.0034 7.14255 9.97689 7.72254Z" fill="white"/>
<path d="M5.49981 2.67578C3.94001 2.67578 2.67554 3.94034 2.67554 5.50014C2.67554 7.05994 3.94001 8.32441 5.49981 8.32441C7.05969 8.32441 8.32417 7.05994 8.32417 5.50014C8.32417 3.94034 7.05969 2.67578 5.49981 2.67578V2.67578ZM5.49981 7.33344C4.48736 7.33336 3.6665 6.51259 3.66659 5.50005C3.66659 4.4876 4.48736 3.66675 5.49989 3.66675C6.51243 3.66683 7.3332 4.4876 7.3332 5.50005C7.3332 6.51259 6.51234 7.33344 5.49981 7.33344V7.33344Z" fill="white"/>
<path d="M9.09591 2.56411C9.09591 2.92859 8.80042 3.22408 8.43594 3.22408C8.07137 3.22408 7.77588 2.92859 7.77588 2.56411C7.77588 2.19955 8.07137 1.90405 8.43594 1.90405C8.80042 1.90405 9.09591 2.19955 9.09591 2.56411V2.56411Z" fill="white"/>
</svg>

<svg width="11" height="11" viewBox="0 0 11 11" fill="none" xmlns="http://www.w3.org/2000/svg"><path d="M10.967 3.232c-.027-.585-.12-.985-.256-1.335a2.695 2.695 0 00-.634-.974A2.696 2.696 0 009.103.29c-.35-.136-.75-.23-1.335-.256C7.18.006 6.994 0 5.5 0 4.006 0 3.819.006 3.232.033c-.585.027-.985.12-1.335.256-.367.138-.7.354-.974.634-.28.275-.496.607-.634.974-.136.35-.23.75-.256 1.335C.006 3.82 0 4.006 0 5.5c0 1.494.006 1.68.033 2.268.027.585.12.985.256 1.335.138.367.354.7.634.974.275.28.607.496.974.634.35.136.75.23 1.335.256.587.027.774.033 2.268.033 1.494 0 1.681-.006 2.268-.033.585-.027.985-.12 1.335-.256a2.812 2.812 0 001.608-1.608c.136-.35.23-.75.256-1.335.027-.587.033-.774.033-2.268 0-1.494-.006-1.681-.033-2.268zm-.99 4.49c-.025.537-.114.828-.19 1.022-.184.48-.564.859-1.043 1.044-.194.075-.485.165-1.022.189-.58.027-.753.032-2.222.032-1.469 0-1.643-.005-2.223-.032-.536-.024-.827-.114-1.02-.19a1.704 1.704 0 01-.633-.41 1.704 1.704 0 01-.412-.633c-.075-.194-.165-.485-.189-1.021C.997 7.143.991 6.969.991 5.5c0-1.469.006-1.642.032-2.222.025-.537.114-.828.19-1.022.088-.239.228-.455.41-.632.178-.183.394-.323.633-.412.194-.075.485-.164 1.022-.189C3.858.997 4.03.991 5.5.991c1.468 0 1.642.006 2.222.032.537.025.828.114 1.022.19.239.088.455.228.632.41.183.178.323.394.411.633.076.194.165.485.19 1.022.026.58.032.753.032 2.222 0 1.469-.006 1.643-.032 2.223z" fill="#fff"/><path d="M5.5 2.676a2.824 2.824 0 100 5.648 2.824 2.824 0 000-5.648zm0 4.657a1.833 1.833 0 110-3.666 1.833 1.833 0 010 3.666zm3.596-4.769a.66.66 0 11-1.32 0 .66.66 0 011.32 0z" fill="#fff"/></svg>
